src/assets/outline/KeyboardOpen.svg

<svg width="24" height="24" viewBox="0 0 24 24"  xmlns="http://www.w3.org/2000/svg">
<path d="M16.7398 19.59H7.26978C6.47978 19.59 5.90977 19.56 5.41977 19.49C1.94977 19.11 1.25977 17.03 1.25977 13.58V7.26001C1.25977 3.81001 1.93977 1.72998 5.43977 1.34998C5.91977 1.27998 6.48978 1.25 7.26978 1.25H16.7398C17.5198 1.25 18.0898 1.27998 18.5898 1.34998C22.0698 1.72998 22.7498 3.81001 22.7498 7.26001V13.58C22.7498 17.03 22.0698 19.11 18.5698 19.49C18.0998 19.56 17.5298 19.59 16.7398 19.59ZM7.25977 2.75C6.54977 2.75 6.03977 2.78003 5.61977 2.84003C3.45977 3.08003 2.74977 3.75002 2.74977 7.27002V13.59C2.74977 17.1 3.45978 17.78 5.59978 18.01C6.03978 18.07 6.54978 18.1 7.26978 18.1H16.7398C17.4598 18.1 17.9598 18.07 18.3798 18.01C20.5398 17.77 21.2498 17.1 21.2498 13.58V7.26001C21.2498 3.75001 20.5398 3.07003 18.3998 2.84003C17.9498 2.78003 17.4498 2.75 16.7298 2.75H7.25977Z" />
<path d="M17.2601 9.07031H13.5801C13.1701 9.07031 12.8301 8.73031 12.8301 8.32031C12.8301 7.91031 13.1701 7.57031 13.5801 7.57031H17.2601C17.6701 7.57031 18.0101 7.91031 18.0101 8.32031C18.0101 8.73031 17.6801 9.07031 17.2601 9.07031Z" />
<path d="M10 9.32031C9.45 9.32031 9 8.87031 9 8.32031C9 7.77031 9.44 7.32031 10 7.32031C10.55 7.32031 11 7.77031 11 8.32031C11 8.87031 10.56 9.32031 10 9.32031Z" />
<path d="M6.8501 9.32031C6.3001 9.32031 5.8501 8.87031 5.8501 8.32031C5.8501 7.77031 6.2901 7.32031 6.8501 7.32031H6.86009C7.41009 7.32031 7.86009 7.77031 7.86009 8.32031C7.86009 8.87031 7.4001 9.32031 6.8501 9.32031Z" />
<path d="M17.2602 14.8604H6.75023C6.34023 14.8604 5.99023 14.5204 5.99023 14.1104C5.99023 13.7004 6.32022 13.3604 6.73022 13.3604H17.2602C17.6702 13.3604 18.0102 13.7004 18.0102 14.1104C18.0102 14.5204 17.6802 14.8604 17.2602 14.8604Z" />
<path d="M17 22.75H7C6.59 22.75 6.25 22.41 6.25 22C6.25 21.59 6.59 21.25 7 21.25H17C17.41 21.25 17.75 21.59 17.75 22C17.75 22.41 17.41 22.75 17 22.75Z" />
</svg>

<?xml version="1.0" encoding="UTF-8"?>
<svg width="24" height="24" viewBox="0 0 24 24" xmlns="http://www.w3.org/2000/svg">
 <path d="m16.74 19.59h-9.47c-0.79 0-1.36-0.03-1.85-0.1-3.47-0.38-4.16-2.46-4.16-5.91v-6.32c0-3.45 0.68-5.53 4.18-5.91 0.48-0.07 1.05-0.09998 1.83-0.09998h9.47c0.78 0 1.35 0.02998 1.85 0.09998 3.48 0.38 4.16 2.46 4.16 5.91v6.32c0 3.45-0.68 5.53-4.18 5.91-0.47 0.07-1.04 0.1-1.83 0.1zm-9.48-16.84c-0.71 0-1.22 0.03003-1.64 0.09003-2.16 0.24-2.87 0.90999-2.87 4.43v6.32c0 3.51 0.71001 4.19 2.85 4.42 0.44 0.06 0.95 0.09 1.67 0.09h9.47c0.72 0 1.22-0.03 1.64-0.09 2.16-0.24 2.87-0.91 2.87-4.43v-6.32c0-3.51-0.71-4.19-2.85-4.42-0.45-0.06-0.95-0.09003-1.67-0.09003h-9.47z"/>
 <path d="m17.26 9.0703h-3.68c-0.41 0-0.75-0.34-0.75-0.75s0.34-0.75 0.75-0.75h3.68c0.41 0 0.75 0.34 0.75 0.75s-0.33 0.75-0.75 0.75z"/>
 <path d="m10 9.3203c-0.55 0-1-0.45-1-1s0.44-1 1-1c0.55 0 1 0.45 1 1s-0.44 1-1 1z"/>
 <path d="m6.8501 9.3203c-0.55 0-1-0.45-1-1s0.44-1 1-1h0.00999c0.55 0 1 0.45 1 1s-0.45999 1-1.01 1z"/>
 <path d="m17.26 14.86h-10.51c-0.41 0-0.76-0.34-0.76-0.75s0.32999-0.75 0.73999-0.75h10.53c0.41 0 0.75 0.34 0.75 0.75s-0.33 0.75-0.75 0.75z"/>
 <path d="m17 22.75h-10c-0.41 0-0.75-0.34-0.75-0.75s0.34-0.75 0.75-0.75h10c0.41 0 0.75 0.34 0.75 0.75s-0.34 0.75-0.75 0.75z"/>
</svg>
